X:1
T:Follow Where Jesus Leadeth
T:Follow Where Jesus Leadeth
T:A. H. Gregory
T:Mrs. G. M. Herrington & A. H. Gregory, 1909
T:Public Domain Courtesy of the Cyber Hymnal™
T:Public Domain Courtesy of the Cyber Hymnal™
C:A. H. Gregory
Z:Public Domain
Z:Courtesy of the Cyber Hymnal™
%%score ( 1 2 ) ( 3 4 )
L:1/8
Q:1/4=97
M:4/4
K:Eb
V:1 treble 
V:2 treble 
V:3 bass 
V:4 bass 
V:1
 !fermata![GB]2 !fermata![GB]2 [EG]>[FA] [GB]>[Ac] | [GB]4 [EG]2 [GB]>[Ac] | %2
w: 1.~Soul! soul! on life’s jour- ney|press- ing Swift- ly|
w: 2.~Long! long! you have lone- ly|wan- dered, Know- ing|
w: 3.~Flee! flee! ere the storm clouds|low- er, To the|
w: 4.~Cling! cling! in thy weak- ness|ev- er, Close to|
 [GB]2 [EG]2 ([EG][DF]) [CE]2 | [DF]6 z2 | !fermata![EB]2 !fermata![EB]2 [EG]>[FA] [GB]>[Ac] | %5
w: on from day * to|day;|List! list! to the Lord’s en-|
w: not the Fa- * ther’s|love;|Still! still! in His bound- less|
w: shel- ter of * His|breast;|Safe! safe! from the pow’r of|
w: Je- sus’ bleed- * ing|side;|Trust! trust! in His pow’r to|
 [GB]4 [EG]2 [GB]>[Ac] | [GB]2 E2 [DG]2 [DF]2 | E6 ||"^Refrain" [EB]>[FB] | %9
w: treat- ing, “Walk thou|in the nar- row|way.”||
w: mer- cy, He doth|beck- on thee a-|bove.|Will you|
w: e- vil You for|ev- er- more shall|rest!||
w: strength- en, Cling to|Him what- e’er be-|tide.||
 e4- [Ge]>[Ge] [EG]>[Ac] | B6 [GB]>[GB] | B6 [FA]>[DB] | [EG]6 [GB]>[GB] | %13
w: ||||
w: fol- low where He leads?|* Hear the|call, gen- tle|call; Hear the|
w: ||||
w: ||||
 c4- [Ac]>[Ac] [Ad]>[Ad] | e4 [GB]2 [EB]>[FB] | B6 [Ad]>[Ad] | e6 G2 |] %17
w: ||||
w: bless- èd in- vi- ta-|* tion, Yet He|calls, Je- sus|calls! *|
w: ||||
w: ||||
V:2
 x8 | x8 | x8 | x8 | x8 | x8 | x2 E2 x4 | E6 || x2 | G3/2 G/ A3/2 A/ x4 | (G>G F>A G2) x2 | %11
 (F>GA>G F2) x2 | x8 | A3/2 A/ A3/2 A/ x4 | (G>G A>A) x4 | (G>FA>G F2) x2 | G>GA>A x4 |] %17
V:3
 !fermata![E,E]2 !fermata![E,E]2 [E,B,]>[E,B,] [E,E]>[E,E] | [E,E]4 [E,B,]2 [E,E]>[E,E] | %2
w: ||
 [E,E]2 [E,B,]2 [C,C]2 (G,=A,) | [B,,B,]6 z2 | %4
w: ||
 !fermata![E,G,]2 !fermata![E,G,]2 [E,B,]>[E,B,] [E,E]>[E,E] | [E,E]4 [E,B,]2 [E,E]>[E,E] | %6
w: ||
 [E,E]2 [G,B,]2 B,2 [B,,A,]2 | [E,G,]6 || [E,G,]>[E,A,] | %9
w: * * Will *||you fol-|
 [E,B,]>[E,B,] [E,C]>[E,C] [E,B,]>[E,B,] [E,B,]>[E,E] | %10
w: low, ev- er fol- low where the bless-|
 [E,E]>[E,E] [B,,D]>[B,,F] [E,E]2 [E,E]>[E,E] | %11
w: èd Mas- ter leads? Hear the lov-|
 [B,,D]>[B,,E] [B,,F]>[B,,E] [B,,D]2 [B,,B,]>[B,,B,] | [E,B,]6 [E,E]>[E,E] | %13
w: ing Gos- pel call, gen- tle call:|Hear the bless-|
 [A,E]>[A,E] [A,E]>[A,E] [A,E]>[A,E] [F,B,]>[F,B,] | [E,B,]>[E,B,] [E,C]>[E,D] [E,E]2 [G,E]>[A,E] | %15
w: èd in- vi- ta- tion, hear the Gos-|pel call to- day; Yet the bless-|
 [B,E]>[B,D] [B,F]>[B,E] [B,D]2 [B,,B,]>[B,,B,] | B,3/2B,3/4CC3/4 B,2 x2 |] %17
w: èd Mas- ter calls, yet the bless-|èd Mas- ter calls! *|
V:4
 x8 | x8 | x6 C,2 | x8 | x8 | x8 | x4 B,2 x2 | x6 || x2 | x8 | x8 | x8 | x8 | x8 | x8 | x8 | %16
 E,4 x4 |] %17

